icons/square/48/mendeleydesktop.svg

<svg xmlns="http://www.w3.org/2000/svg" xmlns:xlink="http://www.w3.org/1999/xlink" width="48" viewBox="0 0 13.546667 13.546667" height="48">
 <defs>
  <clipPath>
   <rect width="84" x="6" y="6" rx="6" height="84" fill="#fff"/>
  </clipPath>
  <linearGradient id="0">
   <stop stop-color="#7d0016"/>
   <stop offset="1" stop-color="#c03d51"/>
  </linearGradient>
  <linearGradient gradientTransform="matrix(0.28222223,0,0,0.28222223,0,-283.45334)" xlink:href="#0" id="1" y1="1050.36" x2="0" y2="1006.36" gradientUnits="userSpaceOnUse"/>
 </defs>
 <g transform="matrix(0.28222223,0,0,0.28222223,0,-283.45334)">
  <path transform="translate(0,1004.3622)" d="M 5.1875,1 C 2.8707723,1 1,2.8707723 1,5.1875 l 0,37.625 C 1,45.129228 2.8707723,47 5.1875,47 l 37.625,0 C 45.129228,47 47,45.129228 47,42.8125 L 47,5.1875 C 47,2.8707723 45.129228,1 42.8125,1 L 5.1875,1 z m 0.1875,0.25 37.25,0 c 2.291546,0 4.125,1.8334541 4.125,4.125 l 0,37.25 c 0,2.291546 -1.833454,4.125 -4.125,4.125 l -37.25,0 C 3.0834541,46.75 1.25,44.916546 1.25,42.625 l 0,-37.25 C 1.25,3.0834541 3.0834541,1.25 5.375,1.25 z" opacity="0.05"/>
  <path transform="translate(0,1004.3622)" d="M 5.375,1.25 C 3.0834541,1.25 1.25,3.0834541 1.25,5.375 l 0,37.25 c 0,2.291546 1.8334541,4.125 4.125,4.125 l 37.25,0 c 2.291546,0 4.125,-1.833454 4.125,-4.125 l 0,-37.25 C 46.75,3.0834541 44.916546,1.25 42.625,1.25 l -37.25,0 z m 0.21875,0.25 36.8125,0 C 44.672614,1.5 46.5,3.3273859 46.5,5.59375 l 0,36.8125 C 46.5,44.672614 44.672614,46.5 42.40625,46.5 l -36.8125,0 C 3.3273859,46.5 1.5,44.672614 1.5,42.40625 l 0,-36.8125 C 1.5,3.3273859 3.3273859,1.5 5.59375,1.5 z" opacity="0.1"/>
  <path transform="translate(0,1004.3622)" d="M 5.59375,1.5 C 3.3273859,1.5 1.5,3.3273859 1.5,5.59375 l 0,36.8125 C 1.5,44.672614 3.3273859,46.5 5.59375,46.5 l 36.8125,0 C 44.672614,46.5 46.5,44.672614 46.5,42.40625 l 0,-36.8125 C 46.5,3.3273859 44.672614,1.5 42.40625,1.5 l -36.8125,0 z m 0.09375,0.125 36.625,0 c 2.253773,0 4.0625,1.8087269 4.0625,4.0625 l 0,36.625 c 0,2.253773 -1.808727,4.0625 -4.0625,4.0625 l -36.625,0 c -2.2537731,0 -4.0625,-1.808727 -4.0625,-4.0625 l 0,-36.625 C 1.625,3.4337269 3.4337269,1.625 5.6875,1.625 z" opacity="0.2"/>
  <path transform="translate(0,1004.3622)" d="M 5.6875,1.625 C 3.4337269,1.625 1.625,3.4337269 1.625,5.6875 l 0,36.625 c 0,2.253773 1.8087269,4.0625 4.0625,4.0625 l 36.625,0 c 2.253773,0 4.0625,-1.808727 4.0625,-4.0625 l 0,-36.625 c 0,-2.2537731 -1.808727,-4.0625 -4.0625,-4.0625 l -36.625,0 z m 0.09375,0.125 36.4375,0 c 2.241182,0 4.03125,1.7900679 4.03125,4.03125 l 0,36.4375 c 0,2.241182 -1.790068,4.03125 -4.03125,4.03125 l -36.4375,0 C 3.5400679,46.25 1.75,44.459932 1.75,42.21875 l 0,-36.4375 C 1.75,3.5400679 3.5400679,1.75 5.78125,1.75 z" opacity="0.3"/>
  <path transform="translate(0,1004.3622)" d="M 5.78125,1.75 C 3.5400679,1.75 1.75,3.5400679 1.75,5.78125 l 0,36.4375 c 0,2.241182 1.7900679,4.03125 4.03125,4.03125 l 36.4375,0 c 2.241182,0 4.03125,-1.790068 4.03125,-4.03125 l 0,-36.4375 C 46.25,3.5400679 44.459932,1.75 42.21875,1.75 l -36.4375,0 z m 0.125,0.125 36.1875,0 c 2.228591,0 4.03125,1.802659 4.03125,4.03125 l 0,36.1875 c 0,2.228591 -1.802659,4.03125 -4.03125,4.03125 l -36.1875,0 C 3.677659,46.125 1.875,44.322341 1.875,42.09375 l 0,-36.1875 C 1.875,3.677659 3.677659,1.875 5.90625,1.875 z" opacity="0.4"/>
  <rect width="44.25" height="44.25" x="1.875" y="1006.24" rx="4.02" opacity="0.5"/>
 </g>
 <rect width="12.418" height="12.418" x="0.564" y="0.564" rx="1.129" fill="url(#1)"/>
 <path d="M 9.620049,8.7357356 C 9.3273508,8.6820299 9.1053027,8.459352 9.0536777,8.1677596 9.0308586,8.0388676 9.0535209,7.9002991 9.1253412,7.7297982 9.1681942,7.6280503 9.1773083,7.5852924 9.1781164,7.4822042 9.1789455,7.3764157 9.1723621,7.3443279 9.1344922,7.2697264 9.0248552,7.0537231 8.741185,6.9141043 8.3602866,6.8886725 8.0272756,6.8664389 7.675422,6.96835 7.5235092,7.1310381 7.3704391,7.2949651 7.3549141,7.4713718 7.4715573,7.7213219 c 0.031506,0.067511 0.063359,0.165739 0.070787,0.2182856 0.06075,0.4297873 -0.2912233,0.7964507 -0.7645424,0.7964507 -0.3737933,0 -0.6605206,-0.1916959 -0.7619474,-0.5094131 C 5.9586796,8.0475457 5.9770271,7.8972222 6.0820044,7.6846902 6.1299202,7.5876835 6.1358829,7.561059 6.1360735,7.443265 6.1362975,7.2907521 6.1066811,7.2197697 5.9994058,7.1159794 5.771508,6.8954816 5.2274973,6.8199782 4.8238201,6.9528187 4.522465,7.0519869 4.3755973,7.2083849 4.3609415,7.4457317 c -0.00676,0.1094926 -0.00177,0.1349649 0.060776,0.3102711 0.065122,0.1825244 0.067861,0.1975947 0.061848,0.3402006 -0.00537,0.1271419 -0.013754,0.1646074 -0.056731,0.2532569 C 4.3639912,8.4790831 4.2679467,8.5812881 4.1417144,8.6528683 3.8906906,8.7952113 3.5906732,8.7678994 3.3474967,8.5805674 3.1987153,8.4659531 3.1205333,8.3016889 3.1064366,8.0740859 3.092742,7.8529747 3.1494416,7.6822294 3.2831739,7.5418592 3.4125601,7.4060507 3.54817,7.3529813 3.7920009,7.3427349 4.0541905,7.3317169 4.1678139,7.2805699 4.247895,7.1375154 4.296893,7.0499864 4.325345,6.918599 4.325345,6.7798604 4.325345,6.6348912 4.278282,6.3119525 4.241619,6.2053567 4.1946699,6.0688475 4.1835896,5.7566788 4.2200653,5.5980523 4.3036723,5.2344605 4.5782725,4.9566739 4.9692915,4.8401287 5.1383911,4.7897275 5.3793023,4.7896602 5.5488432,4.8399769 5.7872727,4.9107248 5.9572496,5.0298871 6.1276758,5.2457682 6.1789685,5.3107417 6.2793185,5.4218323 6.3506752,5.4926361 6.5145873,5.6552778 6.6021763,5.6984133 6.768959,5.698629 6.8998701,5.6987808 6.9717182,5.6720707 7.0901814,5.5791282 7.1596992,5.5245883 7.3582356,5.3134719 7.4698858,5.1753658 7.6634317,4.935959 8.0324723,4.7759427 8.3351085,4.8002038 8.6443952,4.8249988 8.9179052,4.9596053 9.1093795,5.1812608 9.1849285,5.2687168 9.287876,5.4699959 9.318309,5.5897503 9.3493,5.7116995 9.344368,6.0408202 9.309909,6.1504805 9.248307,6.3465015 9.22973,6.4834352 9.228558,6.7501494 c -0.00108,0.2448255 0.00163,0.2706612 0.035921,0.3426682 0.087654,0.1840756 0.2283754,0.2508759 0.5366953,0.2547719 0.1721149,0.00217 0.3231017,0.073048 0.4838177,0.2271058 0.167632,0.16069 0.205485,0.470964 0.09295,0.7619254 -0.07142,0.1846595 -0.30784,0.3616013 -0.5307541,0.3972286 -0.1232426,0.019698 -0.1298157,0.019753 -0.2271394,0.00189 z M 6.9672578,7.2960817 C 7.158677,7.2450083 7.332425,7.0991143 7.4226588,6.9136869 7.4685929,6.8192939 7.4719498,6.8003261 7.4722799,6.6333221 7.4726048,6.4637469 7.4698902,6.4485891 7.4210953,6.34893 7.3495102,6.2027159 7.2302406,6.0854034 7.0802541,6.0136841 6.9607478,5.9565392 6.9565827,5.9557738 6.7651284,5.9557738 c -0.1869147,0 -0.1980077,0.00189 -0.3029246,0.051527 -0.3623571,0.1714459 -0.510818,0.5842305 -0.3346465,0.9304628 0.053159,0.1044763 0.1810621,0.238503 0.2824575,0.2959819 0.139118,0.078864 0.3900801,0.1069376 0.557243,0.062336 z" fill="#fff"/>
</svg>

<svg width="48" height="48" viewBox="0 0 13.547 13.547" xmlns="http://www.w3.org/2000/svg" xmlns:xlink="http://www.w3.org/1999/xlink">
 <defs>
  <linearGradient id="1" x2="0" y1="1050.4" y2="1006.4" gradientTransform="matrix(.28222 0 0 .28222 0 -283.45)" gradientUnits="userSpaceOnUse">
   <stop stop-color="#7d0016" offset="0"/>
   <stop stop-color="#c03d51" offset="1"/>
  </linearGradient>
 </defs>
 <g transform="matrix(.28222 0 0 .28222 0 -283.45)">
  <path transform="translate(0 1004.4)" d="m5.1875 1c-2.3167 0-4.1875 1.8708-4.1875 4.1875v37.625c0 2.3167 1.8708 4.1875 4.1875 4.1875h37.625c2.3167 0 4.1875-1.8708 4.1875-4.1875v-37.625c0-2.3167-1.8708-4.1875-4.1875-4.1875h-37.625zm0.1875 0.25h37.25c2.2915 0 4.125 1.8335 4.125 4.125v37.25c0 2.2915-1.8335 4.125-4.125 4.125h-37.25c-2.2915 0-4.125-1.8335-4.125-4.125v-37.25c0-2.2915 1.8335-4.125 4.125-4.125z" opacity=".05"/>
  <path transform="translate(0 1004.4)" d="m5.375 1.25c-2.2915 0-4.125 1.8335-4.125 4.125v37.25c0 2.2915 1.8335 4.125 4.125 4.125h37.25c2.2915 0 4.125-1.8335 4.125-4.125v-37.25c0-2.2915-1.8335-4.125-4.125-4.125h-37.25zm0.21875 0.25h36.812c2.2664 0 4.0938 1.8274 4.0938 4.0938v36.812c0 2.2664-1.8274 4.0938-4.0938 4.0938h-36.812c-2.2664 0-4.0938-1.8274-4.0938-4.0938v-36.812c0-2.2664 1.8274-4.0938 4.0938-4.0938z" opacity=".1"/>
  <path transform="translate(0 1004.4)" d="m5.5938 1.5c-2.2664 0-4.0938 1.8274-4.0938 4.0938v36.812c0 2.2664 1.8274 4.0938 4.0938 4.0938h36.812c2.2664 0 4.0938-1.8274 4.0938-4.0938v-36.812c0-2.2664-1.8274-4.0938-4.0938-4.0938h-36.812zm0.09375 0.125h36.625c2.2538 0 4.0625 1.8087 4.0625 4.0625v36.625c0 2.2538-1.8087 4.0625-4.0625 4.0625h-36.625c-2.2538 0-4.0625-1.8087-4.0625-4.0625v-36.625c0-2.2538 1.8087-4.0625 4.0625-4.0625z" opacity=".2"/>
  <path transform="translate(0 1004.4)" d="m5.6875 1.625c-2.2538 0-4.0625 1.8087-4.0625 4.0625v36.625c0 2.2538 1.8087 4.0625 4.0625 4.0625h36.625c2.2538 0 4.0625-1.8087 4.0625-4.0625v-36.625c0-2.2538-1.8087-4.0625-4.0625-4.0625h-36.625zm0.09375 0.125h36.438c2.2412 0 4.0312 1.7901 4.0312 4.0312v36.438c0 2.2412-1.7901 4.0312-4.0312 4.0312h-36.438c-2.2412 0-4.0312-1.7901-4.0312-4.0312v-36.438c0-2.2412 1.7901-4.0312 4.0312-4.0312z" opacity=".3"/>
  <path transform="translate(0 1004.4)" d="m5.7812 1.75c-2.2412 0-4.0312 1.7901-4.0312 4.0312v36.438c0 2.2412 1.7901 4.0312 4.0312 4.0312h36.438c2.2412 0 4.0312-1.7901 4.0312-4.0312v-36.438c0-2.2412-1.7901-4.0312-4.0312-4.0312h-36.438zm0.125 0.125h36.188c2.2286 0 4.0312 1.8027 4.0312 4.0312v36.188c0 2.2286-1.8027 4.0312-4.0312 4.0312h-36.188c-2.2286 0-4.0312-1.8027-4.0312-4.0312v-36.188c0-2.2286 1.8027-4.0312 4.0312-4.0312z" opacity=".4"/>
  <rect x="1.875" y="1006.2" width="44.25" height="44.25" rx="4.02" opacity=".5"/>
 </g>
 <rect x=".564" y=".564" width="12.418" height="12.418" rx="1.129" fill="url(#1)"/>
 <path d="m9.62 8.7357c-0.2927-0.053706-0.51475-0.27638-0.56637-0.56798-0.022819-0.12889-1.568e-4 -0.26746 0.071664-0.43796 0.042853-0.10175 0.051967-0.14451 0.052775-0.24759 8.291e-4 -0.10579-0.0057543-0.13788-0.043624-0.21248-0.10964-0.216-0.39331-0.35562-0.77421-0.38105-0.33301-0.022234-0.68486 0.079678-0.83678 0.24237-0.15307 0.16393-0.1686 0.34033-0.051952 0.59028 0.031506 0.067511 0.063359 0.16574 0.070787 0.21829 0.06075 0.42979-0.29122 0.79645-0.76454 0.79645-0.37379 0-0.66052-0.1917-0.76195-0.50941-0.057175-0.1791-0.038827-0.32942 0.06615-0.54195 0.047916-0.097007 0.053878-0.12363 0.054069-0.24143 2.24e-4 -0.15251-0.029392-0.2235-0.13667-0.32729-0.2279-0.2205-0.77191-0.296-1.1756-0.16316-0.30136 0.099168-0.44822 0.25557-0.46288 0.49291-0.00676 0.10949-0.00177 0.13496 0.060776 0.31027 0.065122 0.18252 0.067861 0.19759 0.061848 0.3402-0.00537 0.12714-0.013754 0.16461-0.056731 0.25326-0.062843 0.12962-0.15889 0.23183-0.28512 0.30341-0.25102 0.14234-0.55104 0.11503-0.79422-0.072301-0.14878-0.11461-0.22696-0.27888-0.24106-0.50648-0.013695-0.22111 0.043005-0.39186 0.17674-0.53223 0.12939-0.13581 0.265-0.18888 0.50883-0.19912 0.26219-0.011018 0.37581-0.062165 0.45589-0.20522 0.048998-0.087529 0.07745-0.21892 0.07745-0.35766 0-0.14497-0.047063-0.46791-0.083726-0.5745-0.046949-0.13651-0.058029-0.44868-0.021554-0.6073 0.083607-0.36359 0.35821-0.64138 0.74923-0.75792 0.1691-0.050401 0.41001-0.050468 0.57955-1.518e-4 0.23843 0.070748 0.40841 0.18991 0.57883 0.40579 0.051293 0.064974 0.15164 0.17606 0.223 0.24687 0.16391 0.16264 0.2515 0.20578 0.41828 0.20599 0.13091 1.518e-4 0.20276-0.026558 0.32122-0.1195 0.069518-0.05454 0.26805-0.26566 0.3797-0.40376 0.19355-0.23941 0.56259-0.39942 0.86522-0.37516 0.30929 0.024795 0.5828 0.1594 0.77427 0.38106 0.075549 0.087456 0.1785 0.28874 0.20893 0.40849 0.030991 0.12195 0.026059 0.45107-0.0084 0.56073-0.061602 0.19602-0.080179 0.33295-0.081351 0.59967-0.00108 0.24483 0.00163 0.27066 0.035921 0.34267 0.087654 0.18408 0.22838 0.25088 0.5367 0.25477 0.17211 0.00217 0.3231 0.073048 0.48382 0.22711 0.16763 0.16069 0.20548 0.47096 0.09295 0.76193-0.07142 0.18466-0.30784 0.3616-0.53075 0.39723-0.12324 0.019698-0.12982 0.019753-0.22714 0.00189zm-2.6528-1.4397c0.19142-0.051073 0.36517-0.19697 0.4554-0.38239 0.045934-0.094393 0.049291-0.11336 0.049621-0.28036 3.249e-4 -0.16958-0.0023897-0.18473-0.051185-0.28439-0.071585-0.14621-0.19085-0.26353-0.34084-0.33525-0.11951-0.057145-0.12367-0.05791-0.31513-0.05791-0.18691 0-0.19801 0.00189-0.30292 0.051527-0.36236 0.17145-0.51082 0.58423-0.33465 0.93046 0.053159 0.10448 0.18106 0.2385 0.28246 0.29598 0.13912 0.078864 0.39008 0.10694 0.55724 0.062336z" fill="#fff"/>
</svg>
